X: 20
T: Christmas Eve
C: Tommy Coen
Z: skylos
S: https://thesession.org/tunes/440#setting53730
R: reel
M: 4/4
L: 1/8
K: Gmaj
|:GE|D2 DE G2GA|B2dB ABGB|ABGE DB,DE|G2BG ABGE|
DB,DE GFGA|B2dB ABGA|BA (3ABA GEBG|ABGE G2:|
|:zA|BABd edeg|(3aba ge g2eg|a2ge gage|dedB (3ABA GA|
BABd edeg|(3aba ge g2eg|a2ge (3ded BG|ABGE G2:|
|:dc|BG (3GFG DGBd|eg (3gfg egdc|BG (3GFG DGBG|EA (3A^GA EA (3A^GA|
BG (3GFG DGBd|eg (3gfg egdg|bgab gedB|ABGE G2:|

%-------------------- TUNE SEPARATOR --------------------%

